components/ui-node-icon/src/mergeColumns/mergeColumns.small.svg

<svg width="16" height="16" viewBox="0 0 16 16" fill="none" xmlns="http://www.w3.org/2000/svg">
  <path fill-rule="evenodd" clip-rule="evenodd" d="M5 5V3L2 3L2 13H5V11H6V13C6 13.5523 5.55228 14 5 14H2C1.44771 14 1 13.5523 1 13V3C1 2.44772 1.44772 2 2 2H5C5.55229 2 6 2.44772 6 3V5H5ZM10 11V13C10 13.5523 10.4477 14 11 14H14C14.5523 14 15 13.5523 15 13L15 3C15 2.44772 14.5523 2 14 2H11C10.4477 2 10 2.44772 10 3V5H11V3L14 3V13H11V11H10ZM5.14645 6.14645C5.34171 5.95118 5.65829 5.95118 5.85355 6.14645L7.35355 7.64645C7.54882 7.84171 7.54882 8.15829 7.35355 8.35355L5.85355 9.85355C5.65829 10.0488 5.34171 10.0488 5.14645 9.85355C4.95118 9.65829 4.95118 9.34171 5.14645 9.14645L6.29289 8L5.14645 6.85355C4.95118 6.65829 4.95118 6.34171 5.14645 6.14645ZM10.1464 6.14645C10.3417 5.95118 10.6583 5.95118 10.8536 6.14645C11.0488 6.34171 11.0488 6.65829 10.8536 6.85355L9.70711 8L10.8536 9.14645C11.0488 9.34171 11.0488 9.65829 10.8536 9.85355C10.6583 10.0488 10.3417 10.0488 10.1464 9.85355L8.64645 8.35355C8.45118 8.15829 8.45118 7.84171 8.64645 7.64645L10.1464 6.14645Z" fill="currentColor"/>
</svg>

<svg xmlns="http://www.w3.org/2000/svg" width="16" height="16" fill="none" viewBox="0 0 16 16">
  <path fill="currentColor" fill-rule="evenodd" d="M5 5V3H2v10h3v-2h1v2a1 1 0 0 1-1 1H2a1 1 0 0 1-1-1V3a1 1 0 0 1 1-1h3a1 1 0 0 1 1 1v2H5Zm5 6v2a1 1 0 0 0 1 1h3a1 1 0 0 0 1-1V3a1 1 0 0 0-1-1h-3a1 1 0 0 0-1 1v2h1V3h3v10h-3v-2h-1ZM5.146 6.146a.5.5 0 0 1 .708 0l1.5 1.5a.5.5 0 0 1 0 .708l-1.5 1.5a.5.5 0 0 1-.708-.708L6.293 8 5.146 6.854a.5.5 0 0 1 0-.708Zm5 0a.5.5 0 0 1 .708.708L9.707 8l1.147 1.146a.5.5 0 0 1-.708.708l-1.5-1.5a.5.5 0 0 1 0-.708l1.5-1.5Z" clip-rule="evenodd"/>
</svg>
